X: 82
T: FANCY IRISH JIG
%R: jig
B: Jean White "100 Popular Hornpipes, Reels, Jigs and Country Dances", Boston 1880 p.34
F: http://www.loc.gov/resource/sm1880.09124.0#seq-1
Z: 2014 John Chambers <jc:trillian.mit.edu>
M: 6/8
L: 1/8
K: D
% - - - - - - - - - - - - - - - - - - - - - - - - - - - - -
D |\
DFA =c2A | def gag | fed cBA | GFG AFD |\
DFA =c2A | def gag | fed dcB | Add d2 :|
|: A |\
dfa dfa | dfa agf | ceg ceg | ceg gfe |\
fef gfg | aga bag | fed dcB | Add d2 :|
% - - - - - - - - - - - - - - - - - - - - - - - - - - - - -

%%sep 1 1 500
%%sep 1 1 500
